resources/haticons/SVG/list1.svg

<!-- Generated by IcoMoon.io -->
<svg version="1.1" xmlns="http://www.w3.org/2000/svg" width="24" height="24" viewBox="0 0 24 24">
<title>list1</title>
<path d="M6.984 6.984h14.016v2.016h-14.016v-2.016zM6.984 17.016v-2.016h14.016v2.016h-14.016zM6.984 12.984v-1.969h14.016v1.969h-14.016zM3 9v-2.016h2.016v2.016h-2.016zM3 17.016v-2.016h2.016v2.016h-2.016zM3 12.984v-1.969h2.016v1.969h-2.016z"></path>
</svg>

<svg xmlns="http://www.w3.org/2000/svg" width="24" height="24"><path d="M6.984 6.984H21V9H6.984V6.984zm0 10.032V15H21v2.016H6.984zm0-4.032v-1.969H21v1.969H6.984zM3 9V6.984h2.016V9H3zm0 8.016V15h2.016v2.016H3zm0-4.032v-1.969h2.016v1.969H3z"/></svg>
